assets/thin/octagon-thin.svg

<svg id="Flat" xmlns="http://www.w3.org/2000/svg" viewBox="0 0 256 256">
  <path d="M164.45081,228H91.54919a11.92111,11.92111,0,0,1-8.48535-3.51489L31.51465,172.936A11.92138,11.92138,0,0,1,28,164.45068V91.54932A11.92138,11.92138,0,0,1,31.51465,83.064L83.06384,31.51489A11.92111,11.92111,0,0,1,91.54919,28h72.90162a11.92111,11.92111,0,0,1,8.48535,3.51489L224.48535,83.064A11.92138,11.92138,0,0,1,228,91.54932v72.90136a11.92138,11.92138,0,0,1-3.51465,8.48536l-51.54919,51.54907A11.92111,11.92111,0,0,1,164.45081,228ZM91.54919,36a3.97317,3.97317,0,0,0-2.82836,1.17163L37.17151,88.7207A3.97415,3.97415,0,0,0,36,91.54932v72.90136a3.97415,3.97415,0,0,0,1.17151,2.82862l51.54932,51.54907A3.97317,3.97317,0,0,0,91.54919,220h72.90162a3.97317,3.97317,0,0,0,2.82836-1.17163l51.54932-51.54907A3.97415,3.97415,0,0,0,220,164.45068V91.54932a3.97415,3.97415,0,0,0-1.17151-2.82862L167.27917,37.17163A3.97317,3.97317,0,0,0,164.45081,36Z"/>
</svg>

<svg xmlns="http://www.w3.org/2000/svg" viewBox="0 0 256 256"><path d="M164.5,228h-73a11.5,11.5,0,0,1-8.4-3.5L31.5,172.9a11.5,11.5,0,0,1-3.5-8.4v-73a11.5,11.5,0,0,1,3.5-8.4L83.1,31.5A11.5,11.5,0,0,1,91.5,28h73a11.5,11.5,0,0,1,8.4,3.5l51.6,51.6a11.5,11.5,0,0,1,3.5,8.4v73a11.5,11.5,0,0,1-3.5,8.4l-51.6,51.6A11.5,11.5,0,0,1,164.5,228ZM91.5,36a3.9,3.9,0,0,0-2.8,1.2L37.2,88.7A3.9,3.9,0,0,0,36,91.5v73a3.9,3.9,0,0,0,1.2,2.8l51.5,51.5a3.9,3.9,0,0,0,2.8,1.2h73a3.9,3.9,0,0,0,2.8-1.2l51.5-51.5a3.9,3.9,0,0,0,1.2-2.8v-73a3.9,3.9,0,0,0-1.2-2.8L167.3,37.2a3.9,3.9,0,0,0-2.8-1.2Z"/></svg>
